public/logos/jellysmack.svg

<svg width="1264" height="200" viewBox="0 0 1264 200" fill="none" xmlns="http://www.w3.org/2000/svg">
<g clip-path="url(#clip0_7_135)">
<path d="M115.324 198.239H200.763V173.944H143.101V148.239H195.489V125.704H143.101V101.056H200.763V76.4084H115.324V198.239Z" fill="white"/>
<path d="M462.354 123.944L431.061 76.4084H395.901L447.587 150.352L422.271 198.239H453.915L517.906 76.4084H486.262L462.354 123.944Z" fill="white"/>
<path d="M566.075 99.2958C580.491 99.2958 588.929 104.93 591.39 116.197L591.742 116.901L618.815 114.085L618.464 113.028C615.299 95.4226 603.696 74.6479 567.13 74.6479C554.824 74.6479 542.87 77.817 534.431 83.4508C524.235 90.1409 518.609 100 518.609 111.62C518.609 132.747 531.267 144.366 560.801 150.704C579.084 154.93 585.413 157.394 585.413 165.845C585.413 175 576.623 176.409 571.349 176.409C558.692 176.409 551.308 170.423 550.253 158.803V157.747H522.477V158.803C523.883 184.155 542.167 199.648 569.943 199.648C597.368 199.648 613.541 186.972 613.541 165.493C613.541 142.958 597.016 134.859 570.646 129.225C550.253 125 546.034 119.366 546.034 111.972C546.737 103.873 556.582 99.2958 566.075 99.2958Z" fill="white"/>
<path d="M701.792 169.718L670.852 76.4084H633.582V198.239H659.952V116.549L688.432 197.535L688.783 198.239H714.45L743.281 115.845V198.239H769.299V76.4084H732.382L701.792 169.718Z" fill="white"/>
<path d="M855.793 76.4084H823.446L779.145 198.239H807.976L816.766 172.183H862.122L870.912 198.239H899.743L855.793 77.1127V76.4084ZM854.738 149.648H824.852L839.971 105.986L854.738 149.648Z" fill="white"/>
<path d="M1079.41 129.93L1126.17 76.4084H1091.36L1053.04 123.239V76.4084H1025.26V198.239H1053.04V160.211L1061.83 150L1096.64 197.887L1096.99 198.239H1129.34L1079.41 129.93Z" fill="white"/>
<path d="M245.416 76.4084H217.288V198.239H303.782V173.239H245.416V76.4084Z" fill="white"/>
<path d="M347.38 76.4084H319.252V198.239H405.745V173.239H347.38V76.4084Z" fill="white"/>
<path d="M985.182 155.282C981.666 169.366 972.876 176.761 958.812 176.761C938.419 176.761 926.465 162.676 926.465 137.676V137.324C926.465 112.676 938.419 98.2394 958.812 98.2394C972.876 98.2394 982.018 105.282 985.182 119.718L985.534 120.423L1013.66 117.606L1013.31 116.549C1008.39 90.1408 988.346 75 958.461 75C921.191 75 897.985 98.9437 897.985 136.972V137.324V137.676C897.985 176.056 921.191 199.648 958.461 199.648C988.346 199.648 1008.04 184.507 1013.31 158.099L1013.66 157.042L985.534 154.225L985.182 155.282Z" fill="white"/>
<path d="M28.128 146.127V149.648C28.128 167.254 35.16 176.056 48.8724 176.056C62.9363 176.056 69.2651 167.958 69.2651 150.704V76.4084H97.3931V151.408C97.3931 182.394 79.8131 200 48.8724 200C17.2284 200 -0.351562 182.042 -0.351562 149.648V143.31L28.128 146.127Z" fill="white"/>
<path d="M1140.94 34.507C1140.94 34.8592 1140.94 34.8592 1140.94 35.2113L1171.18 51.4085L1137.78 61.6197L1143.05 78.5211L1189.81 64.0845L1160.28 119.366L1175.75 127.817L1205.28 72.5352L1219.35 119.014L1236.22 113.732L1226.03 80.2817L1256.26 96.4789C1256.62 96.4789 1256.62 96.4789 1256.97 96.1268C1273.49 64.0845 1261.54 24.6479 1229.54 7.74648C1219.7 2.46479 1209.15 0 1198.95 0C1175.4 0 1152.54 12.3239 1140.94 34.507Z" fill="white"/>
</g>
<defs>
<clipPath id="clip0_7_135">
<rect width="1264" height="200" fill="white"/>
</clipPath>
</defs>
</svg>

<svg xmlns="http://www.w3.org/2000/svg" width="1264" height="200" fill="none"><g fill="#fff" clip-path="url(#a)"><path d="M115.324 198.239h85.439v-24.295h-57.662v-25.705h52.388v-22.535h-52.388v-24.648h57.662V76.408h-85.439zM462.354 123.944l-31.293-47.536h-35.16l51.686 73.944-25.316 47.887h31.644l63.991-121.83h-31.644zM566.075 99.296q21.624 0 25.315 16.901l.352.704 27.073-2.816-.351-1.057c-3.165-17.605-14.768-38.38-51.334-38.38-12.306 0-24.26 3.169-32.699 8.803-10.196 6.69-15.822 16.549-15.822 28.169 0 21.127 12.658 32.746 42.192 39.084 18.283 4.226 24.612 6.69 24.612 15.141 0 9.155-8.79 10.564-14.064 10.564-12.657 0-20.041-5.986-21.096-17.606v-1.056h-27.776v1.056c1.406 25.352 19.69 40.845 47.466 40.845 27.425 0 43.598-12.676 43.598-34.155 0-22.535-16.525-30.634-42.895-36.268-20.393-4.225-24.612-9.859-24.612-17.253.703-8.099 10.548-12.676 20.041-12.676M701.792 169.718l-30.94-93.31h-37.27V198.24h26.37v-81.69l28.48 80.986.351.704h25.667l28.831-82.394v82.394h26.018V76.409h-36.917zM855.793 76.408h-32.347L779.145 198.24h28.831l8.79-26.056h45.356l8.79 26.056h28.831l-43.95-121.126zm-1.055 73.24h-29.886l15.119-43.662zM1079.41 129.93l46.76-53.522h-34.81l-38.32 46.831v-46.83h-27.78v121.83h27.78v-38.028l8.79-10.211 34.81 47.887.35.352h32.35zM245.416 76.408h-28.128V198.24h86.494v-25h-58.366zM347.38 76.408h-28.128V198.24h86.493v-25H347.38zM985.182 155.282c-3.516 14.084-12.306 21.479-26.37 21.479-20.393 0-32.347-14.085-32.347-39.085v-.352c0-24.648 11.954-39.085 32.347-39.085 14.064 0 23.206 7.043 26.37 21.479l.352.705 28.126-2.817-.35-1.057C1008.39 90.141 988.346 75 958.461 75c-37.27 0-60.476 23.944-60.476 61.972v.704c0 38.38 23.206 61.972 60.476 61.972 29.885 0 49.579-15.141 54.849-41.549l.35-1.057-28.126-2.817zM28.128 146.127v3.521c0 17.606 7.032 26.408 20.744 26.408 14.064 0 20.393-8.098 20.393-25.352V76.408h28.128v75c0 30.986-17.58 48.592-48.52 48.592-31.645 0-49.225-17.958-49.225-50.352v-6.338zM1140.94 34.507v.704l30.24 16.197-33.4 10.212 5.27 16.901 46.76-14.436-29.53 55.281 15.47 8.451 29.53-55.282 14.07 46.479 16.87-5.282-10.19-33.45 30.23 16.197c.36 0 .36 0 .71-.352 16.52-32.042 4.57-71.48-27.43-88.38C1219.7 2.464 1209.15 0 1198.95 0c-23.55 0-46.41 12.324-58.01 34.507"/></g><defs><clipPath id="a"><path fill="#fff" d="M0 0h1264v200H0z"/></clipPath></defs></svg>
